public/pieces/california/bK.svg

<svg height="100" viewBox="-50 -60 478.766 521.579" width="100" xmlns="http://www.w3.org/2000/svg" xmlns:xlink="http://www.w3.org/1999/xlink"><clipPath id="a"><path d="m44 356h301v75.578125h-301zm0 0"/></clipPath><clipPath id="b"><path d="m241 127h147.765625v195h-147.765625zm0 0"/></clipPath><clipPath id="c"><path d="m0 0h388.765625v431.578125h-388.765625zm0 0"/></clipPath><clipPath id="d"><path d="m0 0h388.765625v431.578125h-388.765625zm0 0"/></clipPath><clipPath id="e"><path d="m0 0h388.765625v431.578125h-388.765625zm0 0"/></clipPath><g transform="translate(0 -20)"><path d="m319.382812 416.578125h-250c-5.523437 0-10-4.476563-10-10v-25c0-5.519531 4.476563-10 10-10h250c5.523438 0 10 4.480469 10 10v25c0 5.523437-4.476562 10-10 10" fill="#4d4d4d"/><path d="m95.382812 413.578125h-36v-45h36zm0 0" fill="#808080"/><g clip-path="url(#a)"><path d="m74.382812 401.578125h240v-15h-240zm245 30h-250c-13.785156 0-25-11.214844-25-25v-25c0-13.785156 11.214844-25 25-25h250c13.785157 0 25 11.214844 25 25v25c0 13.785156-11.214843 25-25 25"/></g><path d="m328.382812 371.578125h-268c-5.523437 0-10-4.476563-10-10v-46c0-5.519531 4.476563-10 10-10h268c5.523438 0 10 4.480469 10 10v46c0 5.523437-4.476562 10-10 10" fill="#4d4d4d"/><path d="m88.382812 359.578125h-35v-45h35zm0 0" fill="#808080"/><path d="m65.382812 356.578125h258v-36h-258zm263 30h-268c-13.785156 0-25-11.214844-25-25v-46c0-13.785156 11.214844-25 25-25h268c13.785157 0 25 11.214844 25 25v46c0 13.785156-11.214843 25-25 25"/><path d="m.0000125.001825v123.171875" fill="none" stroke="#000" stroke-linecap="round" stroke-miterlimit="10" stroke-width="30" transform="matrix(1 0 0 -1 194.3828 138.1737)"/><path d="m.0000125-.0001h71.9999995" fill="none" stroke="#000" stroke-linecap="round" stroke-miterlimit="10" stroke-width="30" transform="matrix(1 0 0 -1 158.3828 50.9999)"/><path d="m207.375 97.875h-24.152344c-5.167968 0-9.835937 3.070312-11.886718 7.808594l-14.984376 34.625c-1.417968 3.28125-1.417968 7.003906 0 10.285156l14.984376 34.625c2.050781 4.738281 6.71875 7.804688 11.886718 7.804688h24.152344c5.164062 0 9.835938-3.066407 11.886719-7.804688l14.980469-34.625c1.417968-3.28125 1.417968-7.003906 0-10.285156l-14.980469-34.625c-2.050781-4.738282-6.722657-7.808594-11.886719-7.808594" fill="#666"/><path d="m184.566406 178.023438h21.464844l14.09375-32.574219-14.09375-32.574219h-21.464844l-14.097656 32.574219zm22.808594 30h-24.15625c-11.152344 0-21.222656-6.613282-25.652344-16.851563l-14.980468-34.621094c-3.050782-7.050781-3.050782-15.144531 0-22.199219l14.980468-34.625c4.429688-10.234374 14.5-16.851562 25.652344-16.851562h24.15625c11.15625 0 21.222656 6.617188 25.652344 16.851562l14.980468 34.625c3.050782 7.054688 3.050782 15.148438 0 22.199219l-14.980468 34.621094c-4.429688 10.238281-14.496094 16.851563-25.652344 16.851563"/><path d="m315.148438 141.59375c32.375 0 58.617187 24.113281 58.617187 53.855469 0 62.832031-48.847656 98.734375-58.617187 107.710937-9.769532 8.976563-58.621094 0-58.621094 0v-107.710937c0-29.742188 26.246094-53.855469 58.621094-53.855469" fill="#4d4d4d"/><path d="m367.382812 148.578125c-23 44-67-5-85 144 0 0 11 26.949219-7 1s2-74.050781 2-100 22-42.128906 40-50.777344c18-8.648437 54 5.777344 50 5.777344" fill="#808080"/><g clip-path="url(#b)"><path d="m271.527344 290.894531c15.0625 1.957031 29.433594 2.464844 34.191406 1 .839844-.742187 1.796875-1.566406 2.859375-2.476562 13.722656-11.792969 50.1875-43.113281 50.1875-93.96875 0-21.746094-19.566406-39.4375-43.617187-39.4375-24.054688 0-43.621094 17.691406-43.621094 39.4375zm24.164062 30.683594c-4.425781 0-9.34375-.234375-14.816406-.691406-14.035156-1.171875-26.632812-3.46875-27.164062-3.566407l-12.183594-2.238281v-119.632812c0-37.644531 33.027344-68.269531 73.621094-68.269531s73.617187 30.625 73.617187 68.269531c0 63.757812-45.308594 102.675781-60.199219 115.46875-1.273437 1.09375-2.375 2.039062-3.054687 2.664062-5.925781 5.445313-15.175781 7.996094-29.820313 7.996094"/></g><path d="m253 137.996094c32.375 0 58.621094 24.109375 58.621094 53.855468 0 62.832032-48.847656 98.734376-58.621094 107.710938-9.769531 8.972656-58.617188 0-58.617188 0v-107.710938c0-29.746093 26.246094-53.855468 58.617188-53.855468" fill="#4d4d4d"/><path d="m289.382812 148.578125c-39 22-56 1-61 154 0 0-8 14.949219-26-11s-7-72.050781-7-98 22-42.128906 40-50.777344c18-8.648437 54 5.777344 54 5.777344" fill="#808080"/><path d="m209.382812 287.296875c15.058594 1.957031 29.433594 2.464844 34.1875 1 .84375-.746094 1.796876-1.566406 2.859376-2.476563 13.726562-11.789062 50.191406-43.113281 50.191406-93.96875 0-21.746093-19.566406-39.441406-43.621094-39.441406-24.050781 0-43.617188 17.695313-43.617188 39.441406zm24.164063 30.683594c-4.429687 0-9.347656-.234375-14.816406-.691407-14.035157-1.171874-26.632813-3.472656-27.164063-3.566406l-12.183594-2.238281v-119.632813c0-37.644531 33.023438-68.273437 73.617188-68.273437s73.621094 30.628906 73.621094 68.273437c0 63.757813-45.3125 102.679688-60.203125 115.46875-1.273438 1.09375-2.375 2.039063-3.054688 2.664063-5.921875 5.441406-15.171875 7.996094-29.816406 7.996094"/><path d="m73.617188 141.59375c-32.371094 0-58.617188 24.113281-58.617188 53.855469 0 62.832031 48.847656 98.734375 58.617188 107.710937 9.769531 8.976563 58.621093 0 58.621093 0v-107.710937c0-29.742188-26.246093-53.855469-58.621093-53.855469" fill="#4d4d4d"/><path d="m81.382812 139.917969c-63 38.660156-31 96.109375 14 156.660156 0 0-23 16.335937-41-9.609375-18-25.953125-45-60.550781-45-86.5s18-51.902344 36-60.550781c18-8.648438 36 0 36 0" fill="#808080"/><path d="m83.046875 291.894531c4.757813 1.464844 19.128906.957031 34.191406-1v-95.445312c0-21.746094-19.570312-39.4375-43.621093-39.4375-24.050782 0-43.617188 17.691406-43.617188 39.4375 0 50.855469 36.464844 82.175781 50.191406 93.96875 1.058594.910156 2.015625 1.734375 2.855469 2.476562m10.027344 29.683594c-14.648438 0-23.894531-2.550781-29.820313-7.996094-.679687-.625-1.78125-1.570312-3.058594-2.664062-14.886718-12.792969-60.195312-51.710938-60.195312-115.46875 0-37.644531 33.027344-68.269531 73.617188-68.269531 40.59375 0 73.621093 30.625 73.621093 68.269531v119.632812l-12.183593 2.238281c-.53125.097657-13.128907 2.394532-27.164063 3.566407-5.472656.457031-10.390625.691406-14.816406.691406"/><path d="m135.765625 137.996094c-32.375 0-58.621094 24.109375-58.621094 53.855468 0 62.832032 48.847657 98.734376 58.621094 107.710938 9.769531 8.972656 58.617187 0 58.617187 0v-107.710938c0-29.746093-26.246093-53.855468-58.617187-53.855468" fill="#4d4d4d"/><path d="m152.382812 138.578125c-36 33.429687-30 93.449219 15 154 0 0-18 26.222656-36 .273437-18-25.953124-49-70.324218-49-96.273437s22-42.128906 40-50.777344c18-8.648437 30-7.222656 30-7.222656" fill="#808080"/><path d="m145.195312 288.296875c4.765626 1.46875 19.140626.964844 34.1875-.992187v-95.453126c0-21.746093-19.566406-39.441406-43.617187-39.441406s-43.621094 17.695313-43.621094 39.441406c0 50.855469 36.464844 82.179688 50.195313 93.96875 1.058594.910157 2.011718 1.730469 2.855468 2.476563m10.023438 29.683594c-14.644531 0-23.890625-2.554688-29.820312-7.996094-.675782-.625-1.777344-1.570313-3.050782-2.664063-14.890625-12.789062-60.203125-51.710937-60.203125-115.46875 0-37.644531 33.027344-68.273437 73.621094-68.273437 40.589844 0 73.617187 30.628906 73.617187 68.273437v119.632813l-12.183593 2.238281c-.527344.09375-13.125 2.394532-27.164063 3.566406-5.46875.457032-10.390625.691407-14.816406.691407"/><path d="m104.382812 305.578125 31.851563 69" fill="#fff"/><g clip-path="url(#c)"><path d="m.0000125.000875 31.8515625-69" fill="none" stroke="#000" stroke-miterlimit="10" stroke-width="30" transform="matrix(1 0 0 -1 104.3828 305.579)"/></g><path d="m178.707031 305.578125 31.851563 69" fill="#fff"/><g clip-path="url(#d)"><path d="m.00093125.000875 31.85156275-69" fill="none" stroke="#000" stroke-miterlimit="10" stroke-width="30" transform="matrix(1 0 0 -1 178.7061 305.579)"/></g><path d="m253.03125 305.578125 31.851562 69" fill="#fff"/><g clip-path="url(#e)"><path d="m.00095.000875 31.851562-69" fill="none" stroke="#000" stroke-miterlimit="10" stroke-width="30" transform="matrix(1 0 0 -1 253.0303 305.579)"/></g></g></svg>

<?xml version="1.0" encoding="UTF-8"?>
<svg xmlns="http://www.w3.org/2000/svg" xmlns:xlink="http://www.w3.org/1999/xlink" width="100" height="100" viewBox="-50 -60 478.766 521.579" version="1.1">
<defs>
<clipPath id="clip1">
  <path d="M 44 356 L 345 356 L 345 431.578125 L 44 431.578125 Z M 44 356 "/>
</clipPath>
<clipPath id="clip2">
  <path d="M 241 127 L 388.765625 127 L 388.765625 322 L 241 322 Z M 241 127 "/>
</clipPath>
<clipPath id="clip3">
  <path d="M 0 0 L 388.765625 0 L 388.765625 431.578125 L 0 431.578125 Z M 0 0 "/>
</clipPath>
<clipPath id="clip4">
  <path d="M 0 0 L 388.765625 0 L 388.765625 431.578125 L 0 431.578125 Z M 0 0 "/>
</clipPath>
<clipPath id="clip5">
  <path d="M 0 0 L 388.765625 0 L 388.765625 431.578125 L 0 431.578125 Z M 0 0 "/>
</clipPath>
</defs>
<g id="surface1" transform="translate(0 -20)">
<path style=" stroke:none;fill-rule:nonzero;fill:rgb(30.195618%,30.195618%,30.195618%);fill-opacity:1;" d="M 319.382812 416.578125 L 69.382812 416.578125 C 63.859375 416.578125 59.382812 412.101562 59.382812 406.578125 L 59.382812 381.578125 C 59.382812 376.058594 63.859375 371.578125 69.382812 371.578125 L 319.382812 371.578125 C 324.90625 371.578125 329.382812 376.058594 329.382812 381.578125 L 329.382812 406.578125 C 329.382812 412.101562 324.90625 416.578125 319.382812 416.578125 "/>
<path style=" stroke:none;fill-rule:nonzero;fill:rgb(50.196838%,50.196838%,50.196838%);fill-opacity:1;" d="M 95.382812 413.578125 L 59.382812 413.578125 L 59.382812 368.578125 L 95.382812 368.578125 Z M 95.382812 413.578125 "/>
<g clip-path="url(#clip1)" clip-rule="nonzero">
<path style=" stroke:none;fill-rule:nonzero;fill:rgb(0%,0%,0%);fill-opacity:1;" d="M 74.382812 401.578125 L 314.382812 401.578125 L 314.382812 386.578125 L 74.382812 386.578125 Z M 319.382812 431.578125 L 69.382812 431.578125 C 55.597656 431.578125 44.382812 420.363281 44.382812 406.578125 L 44.382812 381.578125 C 44.382812 367.792969 55.597656 356.578125 69.382812 356.578125 L 319.382812 356.578125 C 333.167969 356.578125 344.382812 367.792969 344.382812 381.578125 L 344.382812 406.578125 C 344.382812 420.363281 333.167969 431.578125 319.382812 431.578125 "/>
</g>
<path style=" stroke:none;fill-rule:nonzero;fill:rgb(30.195618%,30.195618%,30.195618%);fill-opacity:1;" d="M 328.382812 371.578125 L 60.382812 371.578125 C 54.859375 371.578125 50.382812 367.101562 50.382812 361.578125 L 50.382812 315.578125 C 50.382812 310.058594 54.859375 305.578125 60.382812 305.578125 L 328.382812 305.578125 C 333.90625 305.578125 338.382812 310.058594 338.382812 315.578125 L 338.382812 361.578125 C 338.382812 367.101562 333.90625 371.578125 328.382812 371.578125 "/>
<path style=" stroke:none;fill-rule:nonzero;fill:rgb(50.196838%,50.196838%,50.196838%);fill-opacity:1;" d="M 88.382812 359.578125 L 53.382812 359.578125 L 53.382812 314.578125 L 88.382812 314.578125 Z M 88.382812 359.578125 "/>
<path style=" stroke:none;fill-rule:nonzero;fill:rgb(0%,0%,0%);fill-opacity:1;" d="M 65.382812 356.578125 L 323.382812 356.578125 L 323.382812 320.578125 L 65.382812 320.578125 Z M 328.382812 386.578125 L 60.382812 386.578125 C 46.597656 386.578125 35.382812 375.363281 35.382812 361.578125 L 35.382812 315.578125 C 35.382812 301.792969 46.597656 290.578125 60.382812 290.578125 L 328.382812 290.578125 C 342.167969 290.578125 353.382812 301.792969 353.382812 315.578125 L 353.382812 361.578125 C 353.382812 375.363281 342.167969 386.578125 328.382812 386.578125 "/>
<path style="fill:none;stroke-width:30;stroke-linecap:round;stroke-linejoin:miter;stroke:rgb(0%,0%,0%);stroke-opacity:1;stroke-miterlimit:10;" d="M 0.0000125 0.001825 L 0.0000125 123.1737 " transform="matrix(1,0,0,-1,194.3828,138.1737)"/>
<path style="fill:none;stroke-width:30;stroke-linecap:round;stroke-linejoin:miter;stroke:rgb(0%,0%,0%);stroke-opacity:1;stroke-miterlimit:10;" d="M 0.0000125 -0.0001 L 72.000012 -0.0001 " transform="matrix(1,0,0,-1,158.3828,50.9999)"/>
<path style=" stroke:none;fill-rule:nonzero;fill:rgb(39.99939%,39.99939%,39.99939%);fill-opacity:1;" d="M 207.375 97.875 L 183.222656 97.875 C 178.054688 97.875 173.386719 100.945312 171.335938 105.683594 L 156.351562 140.308594 C 154.933594 143.589844 154.933594 147.3125 156.351562 150.59375 L 171.335938 185.21875 C 173.386719 189.957031 178.054688 193.023438 183.222656 193.023438 L 207.375 193.023438 C 212.539062 193.023438 217.210938 189.957031 219.261719 185.21875 L 234.242188 150.59375 C 235.660156 147.3125 235.660156 143.589844 234.242188 140.308594 L 219.261719 105.683594 C 217.210938 100.945312 212.539062 97.875 207.375 97.875 "/>
<path style=" stroke:none;fill-rule:nonzero;fill:rgb(0%,0%,0%);fill-opacity:1;" d="M 184.566406 178.023438 L 206.03125 178.023438 L 220.125 145.449219 L 206.03125 112.875 L 184.566406 112.875 L 170.46875 145.449219 Z M 207.375 208.023438 L 183.21875 208.023438 C 172.066406 208.023438 161.996094 201.410156 157.566406 191.171875 L 142.585938 156.550781 C 139.535156 149.5 139.535156 141.40625 142.585938 134.351562 L 157.566406 99.726562 C 161.996094 89.492188 172.066406 82.875 183.21875 82.875 L 207.375 82.875 C 218.53125 82.875 228.597656 89.492188 233.027344 99.726562 L 248.007812 134.351562 C 251.058594 141.40625 251.058594 149.5 248.007812 156.550781 L 233.027344 191.171875 C 228.597656 201.410156 218.53125 208.023438 207.375 208.023438 "/>
<path style=" stroke:none;fill-rule:nonzero;fill:rgb(30.195618%,30.195618%,30.195618%);fill-opacity:1;" d="M 315.148438 141.59375 C 347.523438 141.59375 373.765625 165.707031 373.765625 195.449219 C 373.765625 258.28125 324.917969 294.183594 315.148438 303.160156 C 305.378906 312.136719 256.527344 303.160156 256.527344 303.160156 L 256.527344 195.449219 C 256.527344 165.707031 282.773438 141.59375 315.148438 141.59375 "/>
<path style=" stroke:none;fill-rule:nonzero;fill:rgb(50.196838%,50.196838%,50.196838%);fill-opacity:1;" d="M 367.382812 148.578125 C 344.382812 192.578125 300.382812 143.578125 282.382812 292.578125 C 282.382812 292.578125 293.382812 319.527344 275.382812 293.578125 C 257.382812 267.628906 277.382812 219.527344 277.382812 193.578125 C 277.382812 167.628906 299.382812 151.449219 317.382812 142.800781 C 335.382812 134.152344 371.382812 148.578125 367.382812 148.578125 "/>
<g clip-path="url(#clip2)" clip-rule="nonzero">
<path style=" stroke:none;fill-rule:nonzero;fill:rgb(0%,0%,0%);fill-opacity:1;" d="M 271.527344 290.894531 C 286.589844 292.851562 300.960938 293.359375 305.71875 291.894531 C 306.558594 291.152344 307.515625 290.328125 308.578125 289.417969 C 322.300781 277.625 358.765625 246.304688 358.765625 195.449219 C 358.765625 173.703125 339.199219 156.011719 315.148438 156.011719 C 291.09375 156.011719 271.527344 173.703125 271.527344 195.449219 Z M 295.691406 321.578125 C 291.265625 321.578125 286.347656 321.34375 280.875 320.886719 C 266.839844 319.714844 254.242188 317.417969 253.710938 317.320312 L 241.527344 315.082031 L 241.527344 195.449219 C 241.527344 157.804688 274.554688 127.179688 315.148438 127.179688 C 355.742188 127.179688 388.765625 157.804688 388.765625 195.449219 C 388.765625 259.207031 343.457031 298.125 328.566406 310.917969 C 327.292969 312.011719 326.191406 312.957031 325.511719 313.582031 C 319.585938 319.027344 310.335938 321.578125 295.691406 321.578125 "/>
</g>
<path style=" stroke:none;fill-rule:nonzero;fill:rgb(30.195618%,30.195618%,30.195618%);fill-opacity:1;" d="M 253 137.996094 C 285.375 137.996094 311.621094 162.105469 311.621094 191.851562 C 311.621094 254.683594 262.773438 290.585938 253 299.5625 C 243.230469 308.535156 194.382812 299.5625 194.382812 299.5625 L 194.382812 191.851562 C 194.382812 162.105469 220.628906 137.996094 253 137.996094 "/>
<path style=" stroke:none;fill-rule:nonzero;fill:rgb(50.196838%,50.196838%,50.196838%);fill-opacity:1;" d="M 289.382812 148.578125 C 250.382812 170.578125 233.382812 149.578125 228.382812 302.578125 C 228.382812 302.578125 220.382812 317.527344 202.382812 291.578125 C 184.382812 265.628906 195.382812 219.527344 195.382812 193.578125 C 195.382812 167.628906 217.382812 151.449219 235.382812 142.800781 C 253.382812 134.152344 289.382812 148.578125 289.382812 148.578125 "/>
<path style=" stroke:none;fill-rule:nonzero;fill:rgb(0%,0%,0%);fill-opacity:1;" d="M 209.382812 287.296875 C 224.441406 289.253906 238.816406 289.761719 243.570312 288.296875 C 244.414062 287.550781 245.367188 286.730469 246.429688 285.820312 C 260.15625 274.03125 296.621094 242.707031 296.621094 191.851562 C 296.621094 170.105469 277.054688 152.410156 253 152.410156 C 228.949219 152.410156 209.382812 170.105469 209.382812 191.851562 Z M 233.546875 317.980469 C 229.117188 317.980469 224.199219 317.746094 218.730469 317.289062 C 204.695312 316.117188 192.097656 313.816406 191.566406 313.722656 L 179.382812 311.484375 L 179.382812 191.851562 C 179.382812 154.207031 212.40625 123.578125 253 123.578125 C 293.59375 123.578125 326.621094 154.207031 326.621094 191.851562 C 326.621094 255.609375 281.308594 294.53125 266.417969 307.320312 C 265.144531 308.414062 264.042969 309.359375 263.363281 309.984375 C 257.441406 315.425781 248.191406 317.980469 233.546875 317.980469 "/>
<path style=" stroke:none;fill-rule:nonzero;fill:rgb(30.195618%,30.195618%,30.195618%);fill-opacity:1;" d="M 73.617188 141.59375 C 41.246094 141.59375 15 165.707031 15 195.449219 C 15 258.28125 63.847656 294.183594 73.617188 303.160156 C 83.386719 312.136719 132.238281 303.160156 132.238281 303.160156 L 132.238281 195.449219 C 132.238281 165.707031 105.992188 141.59375 73.617188 141.59375 "/>
<path style=" stroke:none;fill-rule:nonzero;fill:rgb(50.196838%,50.196838%,50.196838%);fill-opacity:1;" d="M 81.382812 139.917969 C 18.382812 178.578125 50.382812 236.027344 95.382812 296.578125 C 95.382812 296.578125 72.382812 312.914062 54.382812 286.96875 C 36.382812 261.015625 9.382812 226.417969 9.382812 200.46875 C 9.382812 174.519531 27.382812 148.566406 45.382812 139.917969 C 63.382812 131.269531 81.382812 139.917969 81.382812 139.917969 "/>
<path style=" stroke:none;fill-rule:nonzero;fill:rgb(0%,0%,0%);fill-opacity:1;" d="M 83.046875 291.894531 C 87.804688 293.359375 102.175781 292.851562 117.238281 290.894531 L 117.238281 195.449219 C 117.238281 173.703125 97.667969 156.011719 73.617188 156.011719 C 49.566406 156.011719 30 173.703125 30 195.449219 C 30 246.304688 66.464844 277.625 80.191406 289.417969 C 81.25 290.328125 82.207031 291.152344 83.046875 291.894531 M 93.074219 321.578125 C 78.425781 321.578125 69.179688 319.027344 63.253906 313.582031 C 62.574219 312.957031 61.472656 312.011719 60.195312 310.917969 C 45.308594 298.125 0 259.207031 0 195.449219 C 0 157.804688 33.027344 127.179688 73.617188 127.179688 C 114.210938 127.179688 147.238281 157.804688 147.238281 195.449219 L 147.238281 315.082031 L 135.054688 317.320312 C 134.523438 317.417969 121.925781 319.714844 107.890625 320.886719 C 102.417969 321.34375 97.5 321.578125 93.074219 321.578125 "/>
<path style=" stroke:none;fill-rule:nonzero;fill:rgb(30.195618%,30.195618%,30.195618%);fill-opacity:1;" d="M 135.765625 137.996094 C 103.390625 137.996094 77.144531 162.105469 77.144531 191.851562 C 77.144531 254.683594 125.992188 290.585938 135.765625 299.5625 C 145.535156 308.535156 194.382812 299.5625 194.382812 299.5625 L 194.382812 191.851562 C 194.382812 162.105469 168.136719 137.996094 135.765625 137.996094 "/>
<path style=" stroke:none;fill-rule:nonzero;fill:rgb(50.196838%,50.196838%,50.196838%);fill-opacity:1;" d="M 152.382812 138.578125 C 116.382812 172.007812 122.382812 232.027344 167.382812 292.578125 C 167.382812 292.578125 149.382812 318.800781 131.382812 292.851562 C 113.382812 266.898438 82.382812 222.527344 82.382812 196.578125 C 82.382812 170.628906 104.382812 154.449219 122.382812 145.800781 C 140.382812 137.152344 152.382812 138.578125 152.382812 138.578125 "/>
<path style=" stroke:none;fill-rule:nonzero;fill:rgb(0%,0%,0%);fill-opacity:1;" d="M 145.195312 288.296875 C 149.960938 289.765625 164.335938 289.261719 179.382812 287.304688 L 179.382812 191.851562 C 179.382812 170.105469 159.816406 152.410156 135.765625 152.410156 C 111.714844 152.410156 92.144531 170.105469 92.144531 191.851562 C 92.144531 242.707031 128.609375 274.03125 142.339844 285.820312 C 143.398438 286.730469 144.351562 287.550781 145.195312 288.296875 M 155.21875 317.980469 C 140.574219 317.980469 131.328125 315.425781 125.398438 309.984375 C 124.722656 309.359375 123.621094 308.414062 122.347656 307.320312 C 107.457031 294.53125 62.144531 255.609375 62.144531 191.851562 C 62.144531 154.207031 95.171875 123.578125 135.765625 123.578125 C 176.355469 123.578125 209.382812 154.207031 209.382812 191.851562 L 209.382812 311.484375 L 197.199219 313.722656 C 196.671875 313.816406 184.074219 316.117188 170.035156 317.289062 C 164.566406 317.746094 159.644531 317.980469 155.21875 317.980469 "/>
<path style=" stroke:none;fill-rule:nonzero;fill:rgb(100%,100%,100%);fill-opacity:1;" d="M 104.382812 305.578125 L 136.234375 374.578125 "/>
<g clip-path="url(#clip3)" clip-rule="nonzero">
<path style="fill:none;stroke-width:30;stroke-linecap:butt;stroke-linejoin:miter;stroke:rgb(0%,0%,0%);stroke-opacity:1;stroke-miterlimit:10;" d="M 0.0000125 0.000875 L 31.851575 -68.999125 " transform="matrix(1,0,0,-1,104.3828,305.579)"/>
</g>
<path style=" stroke:none;fill-rule:nonzero;fill:rgb(100%,100%,100%);fill-opacity:1;" d="M 178.707031 305.578125 L 210.558594 374.578125 "/>
<g clip-path="url(#clip4)" clip-rule="nonzero">
<path style="fill:none;stroke-width:30;stroke-linecap:butt;stroke-linejoin:miter;stroke:rgb(0%,0%,0%);stroke-opacity:1;stroke-miterlimit:10;" d="M 0.00093125 0.000875 L 31.852494 -68.999125 " transform="matrix(1,0,0,-1,178.7061,305.579)"/>
</g>
<path style=" stroke:none;fill-rule:nonzero;fill:rgb(100%,100%,100%);fill-opacity:1;" d="M 253.03125 305.578125 L 284.882812 374.578125 "/>
<g clip-path="url(#clip5)" clip-rule="nonzero">
<path style="fill:none;stroke-width:30;stroke-linecap:butt;stroke-linejoin:miter;stroke:rgb(0%,0%,0%);stroke-opacity:1;stroke-miterlimit:10;" d="M 0.00095 0.000875 L 31.852512 -68.999125 " transform="matrix(1,0,0,-1,253.0303,305.579)"/>
</g>
</g>
</svg>
